src/images/icons/icons_separatly/mail.svg

<svg width="26" height="22" viewBox="0 0 26 22" fill="none" xmlns="http://www.w3.org/2000/svg">
<path d="M24.0832 18L16.3333 11M9.66659 11L1.91663 18M1.33325 5.16669L10.859 11.8347C11.6304 12.3747 12.016 12.6446 12.4356 12.7492C12.8061 12.8416 13.1937 12.8416 13.5643 12.7492C13.9838 12.6446 14.3695 12.3747 15.1408 11.8347L24.6666 5.16669M6.93325 20.3334H19.0666C21.0268 20.3334 22.0069 20.3334 22.7556 19.9519C23.4141 19.6163 23.9496 19.0809 24.2851 18.4223C24.6666 17.6736 24.6666 16.6935 24.6666 14.7334V7.26669C24.6666 5.3065 24.6666 4.32641 24.2851 3.57772C23.9496 2.91915 23.4141 2.38372 22.7556 2.04816C22.0069 1.66669 21.0268 1.66669 19.0666 1.66669H6.93325C4.97307 1.66669 3.99298 1.66669 3.24429 2.04816C2.58572 2.38372 2.05029 2.91915 1.71473 3.57772C1.33325 4.32641 1.33325 5.3065 1.33325 7.26669V14.7334C1.33325 16.6935 1.33325 17.6736 1.71473 18.4223C2.05029 19.0809 2.58572 19.6163 3.24429 19.9519C3.99298 20.3334 4.97307 20.3334 6.93325 20.3334Z" stroke="#111111" stroke-width="2" stroke-linecap="round" stroke-linejoin="round"/>
</svg>

<svg xmlns="http://www.w3.org/2000/svg" width="26" height="22" fill="none"><path stroke="#111" stroke-linecap="round" stroke-linejoin="round" stroke-width="2" d="m24.083 18-7.75-7m-6.666 0-7.75 7M1.333 5.167l9.526 6.668c.771.54 1.157.81 1.577.914.37.093.758.093 1.128 0 .42-.104.806-.374 1.577-.914l9.526-6.668M6.933 20.333h12.134c1.96 0 2.94 0 3.689-.381a3.5 3.5 0 0 0 1.53-1.53c.38-.748.38-1.729.38-3.689V7.267c0-1.96 0-2.94-.38-3.69a3.5 3.5 0 0 0-1.53-1.529c-.75-.381-1.73-.381-3.69-.381H6.934c-1.96 0-2.94 0-3.689.381a3.5 3.5 0 0 0-1.53 1.53c-.38.748-.38 1.728-.38 3.689v7.466c0 1.96 0 2.94.38 3.69a3.5 3.5 0 0 0 1.53 1.529c.749.381 1.73.381 3.69.381Z"/></svg>
